X:1
T:[ID 1-47]
T:[ID 1-47]
T:Bezeichnung standardisiert: March March
T:Urheber unbekannt Datum in der hier transkribierten schriftlichen Quelle: vermutlich vor 1767
C:Urheber unbekannt
C:Datum in der hier transkribierten schriftlichen Quelle: vermutlich vor 1767
L:1/8
M:2/4
K:D
V:1 treble 
V:1
 A | de/c/ de/c/ | de/c/ d2 | A/B/c/d/ ee | ee/f/ eg | f/a/e/g/ f/a/e/g/ | f/g/a/b/ ag | %7
 f/a/e/g/ f/a/e/g/ | f/g/a/b/ ag | fe/d/ c/d/e/c/ | dd/d/ dc | d3 :: A/B/c/d/ ef/^g/ | a^g/f/ e2 | %14
 dc BA | ^G/A/B/G/ Ed | c/d/B/d/ c/d/B/d/ | c/d/e/f/ ed | c/d/B/d/ c/d/B/d/ | c/d/e/f/ ed | %20
 cB/A/ ^G/A/B/G/ | AA/A/A^G |"^O)" A/G/F/E/ D2 | dc/B/ A2 | af/a/ ge/g/ | fe/d/ e2 | %26
"^O)" A/G/F/E/ D2 | dc/B/ A2 | af/a/ ge/g/ | fe/d/ e2!D.C.! | %30

